assets/text-BAV8ZFLT.svg

<svg width="1566" height="261" viewBox="0 0 1566 261" fill="none" xmlns="http://www.w3.org/2000/svg">
<path d="M3.75634e-05 238.872V233.273L78.0687 132.499C95.9012 109.483 104.817 88.4364 104.817 69.3599C104.817 55.4672 101.085 44.4774 93.6203 36.3906C86.1555 28.3038 76.3062 24.2604 64.0723 24.2604C55.5708 24.2604 46.862 26.334 37.9458 30.481C29.0296 34.4208 21.0464 39.9156 13.9964 46.9657H12.1302L10.5751 30.17C17.8325 26.0229 26.1266 22.809 35.4575 20.5281C44.9958 18.0398 54.5341 16.7957 64.0723 16.7957C83.1489 16.7957 98.4931 21.4612 110.105 30.7921C121.924 39.9156 127.834 52.1495 127.834 67.4937C127.834 77.032 124.931 87.607 119.125 99.2188C113.319 110.623 103.262 124.516 88.9548 140.897L19.906 220.21H133.743V238.872H3.75634e-05ZM249.488 243.226C234.351 243.226 221.184 239.597 209.987 232.34C198.997 224.875 190.496 214.3 184.483 200.615C178.469 186.929 175.463 170.756 175.463 152.094C175.463 133.64 178.262 116.533 183.86 100.774C189.459 85.0151 197.338 71.1224 207.499 59.0959C217.866 47.0693 229.997 37.4274 243.889 30.17C257.989 22.7053 273.334 18.2472 289.922 16.7957L290.544 22.3942C272.919 24.4678 257.16 31.1031 243.267 42.3002C229.375 53.29 218.385 68.0121 210.298 86.4666C202.419 104.714 198.479 126.071 198.479 150.539C198.479 176.873 203.041 197.712 212.164 213.056C221.495 228.193 233.936 235.761 249.488 235.761C262.551 235.761 273.126 230.577 281.213 220.21C289.3 209.842 293.343 196.157 293.343 179.154C293.343 161.529 289.3 147.532 281.213 137.165C273.126 126.797 262.24 121.613 248.555 121.613C238.395 121.613 228.338 124.205 218.385 129.389L215.586 124.412C229.064 116.74 242.645 112.904 256.331 112.904C268.357 112.904 278.828 115.6 287.745 120.991C296.661 126.175 303.607 133.536 308.584 143.074C313.768 152.612 316.36 163.81 316.36 176.665C316.36 189.936 313.56 201.548 307.962 211.501C302.363 221.454 294.484 229.23 284.323 234.828C274.37 240.427 262.759 243.226 249.488 243.226ZM459.869 260.022V4.87049e-05H469.822V260.022H459.869ZM618.968 130.011C618.968 107.202 622.078 87.3997 628.299 70.604C634.52 53.601 643.228 40.434 654.426 31.1031C665.83 21.5648 678.997 16.7957 693.926 16.7957C709.063 16.7957 722.23 21.5648 733.427 31.1031C744.624 40.434 753.333 53.601 759.554 70.604C765.774 87.3997 768.885 107.202 768.885 130.011C768.885 152.612 765.774 172.415 759.554 189.418C753.333 206.421 744.624 219.691 733.427 229.23C722.23 238.561 709.063 243.226 693.926 243.226C678.997 243.226 665.83 238.561 654.426 229.23C643.228 219.691 634.52 206.421 628.299 189.418C622.078 172.415 618.968 152.612 618.968 130.011ZM641.984 130.011C641.984 163.81 646.546 189.936 655.67 208.391C664.793 226.638 677.545 235.761 693.926 235.761C710.515 235.761 723.267 226.638 732.183 208.391C741.307 189.936 745.869 163.81 745.869 130.011C745.869 96.2122 741.307 70.1893 732.183 51.9422C723.06 33.4877 710.307 24.2604 693.926 24.2604C677.545 24.2604 664.793 33.4877 655.67 51.9422C646.546 70.1893 641.984 96.2122 641.984 130.011ZM890.685 243.226C875.548 243.226 862.381 239.597 851.184 232.34C840.194 224.875 831.693 214.3 825.679 200.615C819.666 186.929 816.66 170.756 816.66 152.094C816.66 133.64 819.459 116.533 825.057 100.774C830.656 85.0151 838.535 71.1224 848.696 59.0959C859.063 47.0693 871.194 37.4274 885.086 30.17C899.186 22.7053 914.531 18.2472 931.119 16.7957L931.741 22.3942C914.116 24.4678 898.357 31.1031 884.464 42.3002C870.572 53.29 859.582 68.0121 851.495 86.4666C843.616 104.714 839.676 126.071 839.676 150.539C839.676 176.873 844.238 197.712 853.361 213.056C862.692 228.193 875.133 235.761 890.685 235.761C903.748 235.761 914.323 230.577 922.41 220.21C930.497 209.842 934.54 196.157 934.54 179.154C934.54 161.529 930.497 147.532 922.41 137.165C914.323 126.797 903.437 121.613 889.752 121.613C879.591 121.613 869.535 124.205 859.582 129.389L856.783 124.412C870.261 116.74 883.842 112.904 897.528 112.904C909.554 112.904 920.025 115.6 928.942 120.991C937.858 126.175 944.804 133.536 949.781 143.074C954.965 152.612 957.556 163.81 957.556 176.665C957.556 189.936 954.757 201.548 949.159 211.501C943.56 221.454 935.681 229.23 925.52 234.828C915.567 240.427 903.956 243.226 890.685 243.226ZM1101.07 260.022V4.87049e-05H1111.02V260.022H1101.07ZM1249.59 238.872V233.273L1327.66 132.499C1345.49 109.483 1354.41 88.4364 1354.41 69.3599C1354.41 55.4672 1350.67 44.4774 1343.21 36.3906C1335.75 28.3038 1325.9 24.2604 1313.66 24.2604C1305.16 24.2604 1296.45 26.334 1287.54 30.481C1278.62 34.4208 1270.64 39.9156 1263.59 46.9657H1261.72L1260.16 30.17C1267.42 26.0229 1275.72 22.809 1285.05 20.5281C1294.59 18.0398 1304.12 16.7957 1313.66 16.7957C1332.74 16.7957 1348.08 21.4612 1359.69 30.7921C1371.51 39.9156 1377.42 52.1495 1377.42 67.4937C1377.42 77.032 1374.52 87.607 1368.71 99.2188C1362.91 110.623 1352.85 124.516 1338.54 140.897L1269.5 220.21H1383.33V238.872H1249.59ZM1499.08 243.226C1483.94 243.226 1470.77 239.597 1459.58 232.34C1448.59 224.875 1440.09 214.3 1434.07 200.615C1428.06 186.929 1425.05 170.756 1425.05 152.094C1425.05 133.64 1427.85 116.533 1433.45 100.774C1439.05 85.0151 1446.93 71.1224 1457.09 59.0959C1467.46 47.0693 1479.59 37.4274 1493.48 30.17C1507.58 22.7053 1522.92 18.2472 1539.51 16.7957L1540.13 22.3942C1522.51 24.4678 1506.75 31.1031 1492.86 42.3002C1478.96 53.29 1467.97 68.0121 1459.89 86.4666C1452.01 104.714 1448.07 126.071 1448.07 150.539C1448.07 176.873 1452.63 197.712 1461.75 213.056C1471.09 228.193 1483.53 235.761 1499.08 235.761C1512.14 235.761 1522.72 230.577 1530.8 220.21C1538.89 209.842 1542.93 196.157 1542.93 179.154C1542.93 161.529 1538.89 147.532 1530.8 137.165C1522.72 126.797 1511.83 121.613 1498.14 121.613C1487.98 121.613 1477.93 124.205 1467.97 129.389L1465.18 124.412C1478.65 116.74 1492.24 112.904 1505.92 112.904C1517.95 112.904 1528.42 115.6 1537.33 120.991C1546.25 126.175 1553.2 133.536 1558.17 143.074C1563.36 152.612 1565.95 163.81 1565.95 176.665C1565.95 189.936 1563.15 201.548 1557.55 211.501C1551.95 221.454 1544.07 229.23 1533.91 234.828C1523.96 240.427 1512.35 243.226 1499.08 243.226Z" fill="#FFF9F2"/>
</svg>

<svg xmlns="http://www.w3.org/2000/svg" width="1566" height="261" fill="none" viewBox="0 0 1566 261"><path fill="#fff9f2" d="M0 238.872v-5.599l78.069-100.774q26.748-34.524 26.748-63.14 0-20.838-11.197-32.968T64.072 24.26q-12.752 0-26.126 6.22-13.374 5.91-23.95 16.485H12.13L10.575 30.17q10.887-6.22 24.883-9.642 14.307-3.732 28.614-3.732 28.615 0 46.033 13.996 17.729 13.686 17.729 36.702 0 14.307-8.709 31.725-8.71 17.106-30.17 41.678L19.906 220.21h113.837v18.662zm249.488 4.354q-22.705 0-39.501-10.886-16.485-11.197-25.504-31.725t-9.02-48.521q0-27.681 8.397-51.32t23.639-41.678q15.551-18.04 36.39-28.926 21.15-11.197 46.033-13.374l.622 5.598q-26.437 3.112-47.277 19.906-20.838 16.485-32.969 44.167-11.819 27.37-11.819 64.072 0 39.501 13.685 62.517 13.996 22.705 37.324 22.705 19.594 0 31.725-15.551t12.13-41.056q0-26.438-12.13-41.989-12.13-15.552-32.658-15.552-15.24 0-30.17 7.776l-2.799-4.977q20.216-11.508 40.745-11.508 18.039 0 31.414 8.087 13.374 7.776 20.839 22.083 7.776 14.308 7.776 33.591 0 19.907-8.398 34.836-8.398 14.93-23.639 23.327-14.929 8.398-34.835 8.398m210.381 16.796V0h9.953v260.022zm159.099-130.011q0-34.213 9.331-59.407 9.33-25.505 26.127-39.5 17.106-14.309 39.5-14.308 22.706 0 39.501 14.307 16.795 13.997 26.127 39.501 9.33 25.194 9.331 59.407 0 33.902-9.331 59.407-9.332 25.504-26.127 39.812-16.796 13.996-39.501 13.996-22.394 0-39.5-13.996-16.796-14.308-26.127-39.812-9.331-25.505-9.331-59.407m23.016 0q0 50.698 13.686 78.38 13.684 27.37 38.256 27.37 24.883 0 38.257-27.37 13.686-27.682 13.686-78.38t-13.686-78.069q-13.685-27.681-38.257-27.682T655.67 51.942q-13.686 27.37-13.686 78.069m248.701 113.215q-22.705 0-39.501-10.886-16.485-11.197-25.505-31.725t-9.019-48.521q0-27.681 8.397-51.32t23.639-41.678q15.551-18.04 36.39-28.926 21.15-11.197 46.033-13.374l.622 5.598q-26.437 3.112-47.277 19.906-20.838 16.485-32.969 44.167-11.819 27.37-11.819 64.072 0 39.501 13.685 62.517 13.996 22.705 37.324 22.705 19.595 0 31.725-15.551t12.13-41.056q0-26.438-12.13-41.989-12.13-15.552-32.658-15.552-15.241 0-30.17 7.776l-2.799-4.977q20.216-11.508 40.745-11.508 18.039 0 31.414 8.087 13.374 7.776 20.839 22.083 7.775 14.308 7.775 33.591 0 19.907-8.397 34.836-8.398 14.93-23.639 23.327-14.929 8.398-34.835 8.398m210.385 16.796V0h9.95v260.022zm148.52-21.15v-5.599l78.07-100.774c17.83-23.016 26.75-44.063 26.75-63.14 0-13.892-3.74-24.882-11.2-32.968q-11.19-12.13-29.55-12.13c-8.5 0-17.21 2.073-26.12 6.22-8.92 3.94-16.9 9.435-23.95 16.485h-1.87l-1.56-16.796c7.26-4.147 15.56-7.361 24.89-9.642 9.54-2.488 19.07-3.732 28.61-3.732 19.08 0 34.42 4.665 46.03 13.996q17.73 13.686 17.73 36.702c0 9.538-2.9 20.113-8.71 31.725-5.8 11.404-15.86 25.297-30.17 41.678l-69.04 79.313h113.83v18.662zm249.49 4.354c-15.14 0-28.31-3.629-39.5-10.886-10.99-7.465-19.49-18.04-25.51-31.725-6.01-13.686-9.02-29.859-9.02-48.521q0-27.681 8.4-51.32t23.64-41.678q15.555-18.04 36.39-28.926c14.1-7.465 29.44-11.923 46.03-13.374l.62 5.598c-17.62 2.074-33.38 8.71-47.27 19.906q-20.85 16.485-32.97 44.167-11.82 27.37-11.82 64.072 0 39.501 13.68 62.517c9.34 15.137 21.78 22.705 37.33 22.705 13.06 0 23.64-5.184 31.72-15.551 8.09-10.368 12.13-24.053 12.13-41.056 0-17.625-4.04-31.622-12.13-41.989-8.08-10.368-18.97-15.552-32.66-15.552-10.16 0-20.21 2.592-30.17 7.776l-2.79-4.977c13.47-7.672 27.06-11.508 40.74-11.508q18.045 0 31.41 8.087c8.92 5.184 15.87 12.545 20.84 22.083 5.19 9.538 7.78 20.736 7.78 33.591q0 19.907-8.4 34.836-8.4 14.93-23.64 23.327-14.925 8.398-34.83 8.398"/></svg>
